X:1
T:Not Tonight
T:Not Tonight
T:Horace Homer Holley
T:Stella May Thompson, 1913
T:Public Domain Courtesy of the Cyber Hymnal™
T:Public Domain Courtesy of the Cyber Hymnal™
C:Horace Homer Holley
Z:Public Domain
Z:Courtesy of the Cyber Hymnal™
%%score ( 1 2 ) ( 3 4 )
L:1/8
Q:1/4=95
M:4/4
K:E
V:1 treble 
V:2 treble 
V:3 bass 
V:4 bass 
V:1
 [EG][FA] | [GB]2 [GB][Ac] [GB]2 [EG][DF] | [CE]2 [CE][DF] [EG]2 [EB][Ec] | %3
w: 1.~Tho’ you’ve|wan- dered, poor sin- ner, a-|way from the light, The Re-|
w: 2.~You have|on- ly to come and His|bless- ings re- ceive, For He’s|
w: 3.~There’s a|time for re- pent- ance, but|soon ’twill have passed, O dear|
w: 4.~“Not to-|night,” you may say in de-|fi- ance, O soul, And be-|
 [Ge]2 [Ac][Ae] [GB]2 [FA][EG] | [DF]6 [B,E][B,F] | [EG]2 [EG][FA] [GB]2 BB | %6
w: deem- er will wel- come you|home; But you|list to the tempt- er and|
w: rea- dy just now to for-|give; Will you|speak, “Not to- night,” and your|
w: sin- ner, what then will you|do? Your de-|ci- sion to- night will bring|
w: lieve there’s no risk in de-|lay; But when|fur- i- ous bil- lows of|
 [Ac]2 [EB][DA] [EG]2 [EG][FA] | [GB]2 [EB][FA] [EG]2 [DG][DF] | [B,E]6 ||"^Refrain" [EG][FA] | %10
w: say, “Not to- night, In the|fu- ture some time I will|come.”||
w: Sav- ior still grieve, And a-|way from His re- fuge e’er|live?|Not to-|
w: sor- row at last, When there’ll|be no re- demp- tion for|you.||
w: death o’er you roll, For His|mer- cy you can- not then|pray!||
 B6 [Gc][Ge] | B6 [Ge][Gc] | [GB]2 [EB][Ec] [EB]2 [DA][EG] | F6 [B,E][B,F] | G6 [EG][FA] | %15
w: |||||
w: night, I will|wait, For the|path- way of sin seems so|bright; It will|not be too|
w: |||||
w: |||||
 B6 [B,E][B,F] | [EG]2 [EB][Ec] [EG]2 [EG][DF] | E6 |] %18
w: |||
w: late; Yes, some|time I will come— not to-|night.|
w: |||
w: |||
V:2
 x2 | x8 | x8 | x8 | x8 | x6 BB | x8 | x8 | x6 || x2 | (GGBA G2) x2 | (GGFF G2) x2 | x8 | %13
 (DDDD D2) x2 | (EEEE E2) x2 | (GGBA G2) x2 | x8 | (EB,CC E2) |] %18
V:3
 [E,B,][E,B,] | [E,E]2 [E,E][E,E] [E,E]2 [E,B,][B,,A,] | %2
w: ~ ~|~ ~ ~ ~ ~ ~|
 [C,G,]2 [C,G,][B,,B,] [E,B,]2 [E,G,][E,A,] | [E,B,]2 [E,E][E,C] [E,E]2 [D,B,][E,B,] | %4
w: ~ ~ ~ ~ ~ ~|~ ~ ~ ~ ~ ~|
 [B,,B,]6 [E,G,][E,A,] | [E,B,]2 [E,B,][E,B,] [E,E]2 [G,E][G,E] | %6
w: ~ ~ ~|~ ~ ~ ~ ~ ~|
 [A,E]2 [G,B,][F,B,] [E,B,]2 [E,B,][E,B,] | [E,E]2 [G,B,][A,C] B,2 [B,,B,][B,,A,] | [E,G,]6 || %9
w: ~ ~ ~ ~ ~ ~|~ ~ ~ ~ ~ ~|~|
 [E,B,][E,B,] | [E,E][E,E][G,E][F,D] [E,E]2 [E,E][E,B,] | %11
w: ~ ~|~ but I will wait, Not to-|
 [E,E][E,E][B,,D][B,,D] [E,E]2 [E,B,][E,E] | [E,E]2 [G,B,]A, [G,B,]2 [F,B,][E,B,] | %13
w: night, but I will wait, ~ ~|~ ~ ~ ~ ~ ~|
 [B,,B,][B,,B,][B,,B,][B,,B,] [B,,B,]2 [E,G,][E,A,] | [E,B,][E,B,][C,C][C,C] [E,B,]2 [E,B,][E,B,] | %15
w: yes, seems so bright; ~ ~ ~|~ be late, too late, It will|
 [E,E][E,E][G,E][F,D] [E,E]2 [E,G,][E,A,] | [E,B,]2 [G,E][A,C] [B,E]2 [B,,B,][B,,A,] | %17
w: not be late, too late ~ ~|~ ~ ~ ~ I will|
 G,G,A,A, G,2 |] %18
w: come, but not to- night.|
V:4
 x2 | x8 | x8 | x8 | x8 | x8 | x8 | x4 B,2 x2 | x6 || x2 | x8 | x8 | x3 A, x4 | x8 | x8 | x8 | x8 | %17
 E,6 |] %18

